Numix-Light/16/status/indicator-keyboard-De-9.svg

<?xml version="1.0" encoding="UTF-8" standalone="no"?>
<svg
   xmlns:dc="http://purl.org/dc/elements/1.1/"
   xmlns:cc="http://creativecommons.org/ns#"
   xmlns:rdf="http://www.w3.org/1999/02/22-rdf-syntax-ns#"
   xmlns:svg="http://www.w3.org/2000/svg"
   xmlns="http://www.w3.org/2000/svg"
   xmlns:sodipodi="http://sodipodi.sourceforge.net/DTD/sodipodi-0.dtd"
   xmlns:inkscape="http://www.inkscape.org/namespaces/inkscape"
   viewBox="0 0 16 16"
   id="svg2"
   version="1.1"
   inkscape:version="0.91 r13725"
   sodipodi:docname="indicator-keyboard-De-9.svg">
  <metadata
     id="metadata14">
    <rdf:RDF>
      <cc:Work
         rdf:about="">
        <dc:format>image/svg+xml</dc:format>
        <dc:type
           rdf:resource="http://purl.org/dc/dcmitype/StillImage" />
      </cc:Work>
    </rdf:RDF>
  </metadata>
  <defs
     id="defs12" />
  <sodipodi:namedview
     pagecolor="#ffffff"
     bordercolor="#666666"
     borderopacity="1"
     objecttolerance="10"
     gridtolerance="10"
     guidetolerance="10"
     inkscape:pageopacity="0"
     inkscape:pageshadow="2"
     inkscape:window-width="459"
     inkscape:window-height="369"
     id="namedview10"
     showgrid="false"
     inkscape:zoom="14.75"
     inkscape:cx="8"
     inkscape:cy="8"
     inkscape:window-x="65"
     inkscape:window-y="24"
     inkscape:window-maximized="0"
     inkscape:current-layer="svg2" />
  <path
     style="fill:#353535;fill-opacity:1"
     d="M 1.5996094 0 C 0.71320937 2.9605947e-16 0 0.71320937 0 1.5996094 L 0 14.400391 C 2.9605947e-16 15.286791 0.71320937 16 1.5996094 16 L 14.400391 16 C 15.286791 16 16 15.286791 16 14.400391 L 16 1.5996094 C 16 0.71320937 15.286791 0 14.400391 0 L 1.5996094 0 z M 2.8671875 4.8046875 C 3.3711875 4.8046875 3.8339062 4.8719062 4.2539062 5.0039062 C 4.6739063 5.1359063 5.0339844 5.3336562 5.3339844 5.5976562 C 5.6399844 5.8616562 5.8769219 6.1918906 6.0449219 6.5878906 C 6.2129219 6.9838906 6.296875 7.4446562 6.296875 7.9726562 C 6.296875 8.5066563 6.2129219 8.9711875 6.0449219 9.3671875 C 5.8769219 9.7631875 5.6399844 10.093422 5.3339844 10.357422 C 5.0339844 10.621422 4.6739062 10.819172 4.2539062 10.951172 C 3.8339063 11.083172 3.3711875 11.150391 2.8671875 11.150391 C 2.6151875 11.150391 2.3521719 11.135469 2.0761719 11.105469 C 1.8001719 11.081469 1.5576563 11.042281 1.3476562 10.988281 L 1.3476562 4.9765625 C 1.5576563 4.9165625 1.8001719 4.8736094 2.0761719 4.8496094 C 2.3521719 4.8196094 2.6151875 4.8046875 2.8671875 4.8046875 z M 2.9394531 5.3359375 C 2.6154531 5.3359375 2.3785156 5.3452812 2.2285156 5.3632812 C 2.0845156 5.3812812 1.9949844 5.3924375 1.9589844 5.3984375 L 1.9589844 10.556641 C 1.9949844 10.562641 2.0845156 10.573797 2.2285156 10.591797 C 2.3785156 10.609797 2.6154531 10.619141 2.9394531 10.619141 C 3.3894531 10.619141 3.7831406 10.559453 4.1191406 10.439453 C 4.4551406 10.313453 4.7368437 10.136203 4.9648438 9.9082031 C 5.1928437 9.6802031 5.3645156 9.4040781 5.4785156 9.0800781 C 5.5925156 8.7500781 5.6484375 8.3806562 5.6484375 7.9726562 C 5.6484375 7.5646563 5.5925156 7.199 5.4785156 6.875 C 5.3645156 6.551 5.1928438 6.274875 4.9648438 6.046875 C 4.7368438 5.818875 4.4551406 5.6453906 4.1191406 5.5253906 C 3.7831406 5.3993906 3.3894531 5.3359375 2.9394531 5.3359375 z M 9.3769531 6.3359375 C 9.9469533 6.3359375 10.398375 6.5205781 10.734375 6.8925781 C 11.076375 7.2645781 11.248047 7.8373281 11.248047 8.6113281 C 11.248047 8.6593281 11.246234 8.7078594 11.240234 8.7558594 C 11.240234 8.8038594 11.236469 8.848625 11.230469 8.890625 L 7.9628906 8.890625 C 7.9808906 9.460625 8.1227187 9.8990779 8.3867188 10.205078 C 8.6507187 10.511078 9.0704844 10.664062 9.6464844 10.664062 C 9.9644845 10.664062 10.216344 10.634219 10.402344 10.574219 C 10.588344 10.514219 10.722641 10.463875 10.806641 10.421875 L 10.916016 10.925781 C 10.832016 10.973781 10.6715 11.029703 10.4375 11.095703 C 10.2095 11.161703 9.9409064 11.195312 9.6289062 11.195312 C 9.2209063 11.195312 8.8719844 11.135625 8.5839844 11.015625 C 8.2959844 10.895625 8.0590469 10.727719 7.8730469 10.511719 C 7.6870469 10.295719 7.55275 10.040094 7.46875 9.7460938 C 7.38475 9.4460938 7.3417969 9.119625 7.3417969 8.765625 C 7.3417969 8.357625 7.3996719 8.003125 7.5136719 7.703125 C 7.6336719 7.397125 7.7866563 7.1415 7.9726562 6.9375 C 8.1646562 6.7335 8.3810938 6.5842812 8.6210938 6.4882812 C 8.8670938 6.3862812 9.1189531 6.3359375 9.3769531 6.3359375 z M 9.3847656 6.8574219 C 9.1747656 6.8574219 8.9863594 6.8984219 8.8183594 6.9824219 C 8.6563594 7.0664219 8.5127188 7.1802187 8.3867188 7.3242188 C 8.2667187 7.4622188 8.1696563 7.6245469 8.0976562 7.8105469 C 8.0316562 7.9965469 7.9924687 8.1924844 7.9804688 8.3964844 L 10.644531 8.3964844 C 10.632531 7.9104844 10.518734 7.5317188 10.302734 7.2617188 C 10.086734 6.9917187 9.7807656 6.8574219 9.3847656 6.8574219 z M 13.355469 8.7539062 C 13.780569 8.7539062 14.101912 8.9047781 14.320312 9.2050781 C 14.542613 9.5014781 14.652344 9.9168718 14.652344 10.451172 C 14.652344 11.266272 14.458359 11.879569 14.068359 12.292969 C 13.678359 12.702469 13.108175 12.908203 12.359375 12.908203 L 12.347656 12.591797 C 12.605056 12.591797 12.842141 12.562406 13.056641 12.503906 C 13.271141 12.445406 13.455328 12.355275 13.611328 12.234375 C 13.771228 12.109575 13.900547 11.952819 13.998047 11.761719 C 14.099447 11.566719 14.168025 11.331594 14.203125 11.058594 C 14.097825 11.113194 13.970466 11.162178 13.822266 11.205078 C 13.674066 11.244078 13.517309 11.263672 13.349609 11.263672 C 13.131209 11.263672 12.945069 11.230363 12.792969 11.164062 C 12.640869 11.093863 12.517428 11.001772 12.423828 10.888672 C 12.330228 10.775572 12.26165 10.646247 12.21875 10.498047 C 12.17585 10.349847 12.15625 10.195056 12.15625 10.035156 C 12.15625 9.8869562 12.177809 9.7360844 12.224609 9.5839844 C 12.271409 9.4318844 12.343906 9.2966812 12.441406 9.1757812 C 12.542806 9.0509812 12.668206 8.9490938 12.816406 8.8710938 C 12.968506 8.7930937 13.148769 8.7539062 13.355469 8.7539062 z M 13.361328 9.0878906 C 13.217028 9.0878906 13.093588 9.1153219 12.992188 9.1699219 C 12.890788 9.2206219 12.808494 9.2892 12.746094 9.375 C 12.683694 9.4608 12.636669 9.5587751 12.605469 9.671875 C 12.578169 9.784975 12.564453 9.9025374 12.564453 10.023438 C 12.564453 10.331537 12.633031 10.560784 12.769531 10.708984 C 12.909931 10.857184 13.115666 10.929687 13.384766 10.929688 C 13.564166 10.929688 13.718963 10.910094 13.851562 10.871094 C 13.988063 10.828194 14.115422 10.781163 14.232422 10.726562 C 14.236355 10.679762 14.238281 10.634697 14.238281 10.591797 C 14.242215 10.548897 14.244141 10.499913 14.244141 10.445312 C 14.244141 10.262013 14.230425 10.087628 14.203125 9.9238281 C 14.179725 9.7600281 14.1327 9.6169874 14.0625 9.4921875 C 13.9962 9.3673875 13.906069 9.2694188 13.792969 9.1992188 C 13.679869 9.1251188 13.536828 9.0878906 13.361328 9.0878906 z "
     id="path4" />
</svg>

<svg xmlns="http://www.w3.org/2000/svg" viewBox="0 0 16 16">
 <path d="m 1.6 0 c -0.886 0 -1.6 0.713 -1.6 1.6 l 0 12.801 c 0 0.886 0.713 1.6 1.6 1.6 l 12.801 0 c 0.886 0 1.6 -0.713 1.6 -1.6 l 0 -12.801 c 0 -0.886 -0.713 -1.6 -1.6 -1.6 l -12.801 0 z m 1.268 4.805 c 0.504 0 0.967 0.067 1.387 0.199 c 0.42 0.132 0.78 0.33 1.08 0.594 c 0.306 0.264 0.543 0.594 0.711 0.99 c 0.168 0.396 0.252 0.857 0.252 1.385 c 0 0.534 -0.084 0.999 -0.252 1.395 c -0.168 0.396 -0.405 0.726 -0.711 0.99 c -0.3 0.264 -0.66 0.462 -1.08 0.594 c -0.42 0.132 -0.883 0.199 -1.387 0.199 c -0.252 0 -0.515 -0.015 -0.791 -0.045 c -0.276 -0.024 -0.519 -0.063 -0.729 -0.117 l 0 -6.01 c 0.21 -0.06 0.453 -0.103 0.729 -0.127 c 0.276 -0.03 0.539 -0.045 0.791 -0.045 z m 0.072 0.531 c -0.324 0 -0.561 0.009 -0.711 0.027 c -0.144 0.018 -0.234 0.029 -0.27 0.035 l 0 5.158 c 0.036 0.006 0.126 0.017 0.27 0.035 c 0.15 0.018 0.387 0.027 0.711 0.027 c 0.45 0 0.844 -0.06 1.18 -0.18 c 0.336 -0.126 0.618 -0.303 0.846 -0.531 c 0.228 -0.228 0.4 -0.504 0.514 -0.828 c 0.114 -0.33 0.17 -0.699 0.17 -1.107 c 0 -0.408 -0.056 -0.774 -0.17 -1.098 c -0.114 -0.324 -0.286 -0.6 -0.514 -0.828 c -0.228 -0.228 -0.51 -0.401 -0.846 -0.521 c -0.336 -0.126 -0.73 -0.189 -1.18 -0.189 z m 6.438 1 c 0.57 0 1.021 0.185 1.357 0.557 c 0.342 0.372 0.514 0.945 0.514 1.719 c 0 0.048 -0.002 0.097 -0.008 0.145 c 0 0.048 -0.004 0.093 -0.01 0.135 l -3.268 0 c 0.018 0.57 0.16 1.01 0.424 1.314 c 0.264 0.306 0.684 0.459 1.26 0.459 c 0.318 0 0.57 -0.03 0.756 -0.09 c 0.186 -0.06 0.32 -0.11 0.404 -0.152 l 0.109 0.504 c -0.084 0.048 -0.245 0.104 -0.479 0.17 c -0.228 0.066 -0.497 0.1 -0.809 0.1 c -0.408 0 -0.757 -0.06 -1.045 -0.18 c -0.288 -0.12 -0.525 -0.288 -0.711 -0.504 c -0.186 -0.216 -0.32 -0.472 -0.404 -0.766 c -0.084 -0.3 -0.127 -0.626 -0.127 -0.98 c 0 -0.408 0.058 -0.762 0.172 -1.063 c 0.12 -0.306 0.273 -0.562 0.459 -0.766 c 0.192 -0.204 0.408 -0.353 0.648 -0.449 c 0.246 -0.102 0.498 -0.152 0.756 -0.152 z m 0.008 0.521 c -0.21 0 -0.398 0.041 -0.566 0.125 c -0.162 0.084 -0.306 0.198 -0.432 0.342 c -0.12 0.138 -0.217 0.3 -0.289 0.486 c -0.066 0.186 -0.105 0.382 -0.117 0.586 l 2.664 0 c -0.012 -0.486 -0.126 -0.865 -0.342 -1.135 c -0.216 -0.27 -0.522 -0.404 -0.918 -0.404 z m 3.971 1.896 c 0.425 0 0.746 0.151 0.965 0.451 c 0.222 0.296 0.332 0.712 0.332 1.246 c 0 0.815 -0.194 1.428 -0.584 1.842 c -0.39 0.41 -0.96 0.615 -1.709 0.615 l -0.012 -0.316 c 0.257 0 0.494 -0.029 0.709 -0.088 c 0.214 -0.059 0.399 -0.149 0.555 -0.27 c 0.16 -0.125 0.289 -0.282 0.387 -0.473 c 0.101 -0.195 0.17 -0.43 0.205 -0.703 c -0.105 0.055 -0.233 0.104 -0.381 0.146 c -0.148 0.039 -0.305 0.059 -0.473 0.059 c -0.218 0 -0.405 -0.033 -0.557 -0.1 c -0.152 -0.07 -0.276 -0.162 -0.369 -0.275 c -0.094 -0.113 -0.162 -0.242 -0.205 -0.391 c -0.043 -0.148 -0.063 -0.303 -0.063 -0.463 c 0 -0.148 0.022 -0.299 0.068 -0.451 c 0.047 -0.152 0.119 -0.287 0.217 -0.408 c 0.101 -0.125 0.227 -0.227 0.375 -0.305 c 0.152 -0.078 0.332 -0.117 0.539 -0.117 z m 0.006 0.334 c -0.144 0 -0.268 0.027 -0.369 0.082 c -0.101 0.051 -0.184 0.119 -0.246 0.205 c -0.062 0.086 -0.109 0.184 -0.141 0.297 c -0.027 0.113 -0.041 0.231 -0.041 0.352 c 0 0.308 0.069 0.537 0.205 0.686 c 0.14 0.148 0.346 0.221 0.615 0.221 c 0.179 0 0.334 -0.02 0.467 -0.059 c 0.137 -0.043 0.264 -0.09 0.381 -0.145 c 0.004 -0.047 0.006 -0.092 0.006 -0.135 c 0.004 -0.043 0.006 -0.092 0.006 -0.146 c 0 -0.183 -0.014 -0.358 -0.041 -0.521 c -0.023 -0.164 -0.07 -0.307 -0.141 -0.432 c -0.066 -0.125 -0.156 -0.223 -0.27 -0.293 c -0.113 -0.074 -0.256 -0.111 -0.432 -0.111 z" style="fill:#353535;fill-opacity:1"/>
</svg>
